X:120
T:Admiral Mitchell’s Hornpipe. RHu.120
S:R.Hughes MS,1823,Whitchurch,Shrops.
A:Whitchurch, Shropshire
Z:Tony Weatherall 2006
M:C
L:1/8
Q:1/2=90
R:.Hornpipe
K:Bb
B2B2DEFD|C2c2c3d|edgf edcB|A2F2F2 ED|
EGFA GBAc|Bdce d2g2|fdcB ecBA|B2B,2B,2z2:|
|:dBfd cAfc|Ggbg f=edc|=ecge fcaf|gcbg f=edc|
dBAG Acfa|gb=eg f2gf|ecfe dBed|cAdc BAGF:|

